X: 137
T:60th Summer Assembly
K:G
M:4/4
C:Muriel Johnstone
L:1/8
R:Strathspey
D2|"G"G2 G>F "Em"G2 (3GAB|"Am"c>B A>G "D7"Fd|"G"G2 G>F "Em"G2 (3GAB
|"Am" c>B dF||
"G"G2 G>F "Em"G2 (3GAB|"Am" c>B A>G "C"EE|"G"D>E EB cF "G"G2|!
a|"Em"g>f g>e "Bm"dd|"Am"c>B"D7"c>B "G"B>dd>a|"Em"g>f "C"g>e "G"dB Aa|!
"Em"g>f "C"g>e "G"dB A>G "C"EE|"G"D>E GB cF "G"G2||
% 

